assets/img/braze_icons/shopping-cart-01.svg

<svg fill="none" height="24" viewBox="0 0 24 24" width="24" xmlns="http://www.w3.org/2000/svg"><g fill="#801ed7"><path d="m2 3.00001h1.1327l.44831 3.13811 1.05621 7.76318c.06265.4606.11711.861.18795 1.1903.07526.3499.18289.6927.38882 1.0169.31002.4881.75448.8762 1.27988 1.1176.34901.1603.7032.2207 1.06004.2481.33587.0258.73995.0258 1.20482.0258h8.62737c.4421 0 .8275 0 1.1489-.024.3422-.0255.6817-.0819 1.0189-.2304.5094-.2243.9464-.5858 1.262-1.0443.209-.3035.3279-.6264.417-.9578.0837-.3112.1558-.6897.2385-1.124l1.335-7.00868c.0266-.13957.0574-.30058.0718-.44257.0162-.15973.0256-.40254-.068-.66774-.1184-.33519-.352-.61744-.6591-.79645-.243-.14162-.4833-.17782-.6432-.19177-.1422-.01239-.3061-.01234-.4482-.01229l-15.62098.00001-.35357-2.47507c-.0147-.10319-.03265-.2292-.05725-.34007-.02896-.13055-.08095-.31084-.19916-.49502-.15541-.24216-.37719-.43452-.6389-.55412-.19904-.09096-.38487-.11694-.51821-.12715-.11324-.008665-.24051-.008615-.34475-.00857h-1.32688c-.55228 0-1 .44772-1 1 0 .55229.44772 1 1 1z"/><path d="m7 21c0-1.1046.89543-2 2-2 1.1046 0 2 .8954 2 2s-.8954 2-2 2c-1.10457 0-2-.8954-2-2z"/><path d="m15 21c0-1.1046.8954-2 2-2s2 .8954 2 2-.8954 2-2 2-2-.8954-2-2z"/></g></svg>

<svg width="24" height="24" viewBox="0 0 24 24" fill="none" xmlns="http://www.w3.org/2000/svg">
<path d="M2 3.00001H3.1327L3.58101 6.13812L4.63722 13.9013C4.69987 14.3619 4.75433 14.7623 4.82517 15.0916C4.90043 15.4415 5.00806 15.7843 5.21399 16.1085C5.52401 16.5966 5.96847 16.9847 6.49387 17.2261C6.84288 17.3864 7.19707 17.4468 7.55391 17.4742C7.88978 17.5 8.29386 17.5 8.75873 17.5H17.3861C17.8282 17.5 18.2136 17.5 18.535 17.476C18.8772 17.4505 19.2167 17.3941 19.5539 17.2456C20.0633 17.0213 20.5003 16.6598 20.8159 16.2013C21.0249 15.8978 21.1438 15.5749 21.2329 15.2435C21.3166 14.9323 21.3887 14.5538 21.4714 14.1195L22.8064 7.11082C22.833 6.97125 22.8638 6.81024 22.8782 6.66825C22.8944 6.50852 22.9038 6.26571 22.8102 6.00051C22.6918 5.66532 22.4582 5.38307 22.1511 5.20406C21.9081 5.06244 21.6678 5.02624 21.5079 5.01229C21.3657 4.9999 21.2018 4.99995 21.0597 5L5.43872 5.00001L5.08515 2.52494C5.07045 2.42175 5.0525 2.29574 5.0279 2.18487C4.99894 2.05432 4.94695 1.87403 4.82874 1.68985C4.67333 1.44769 4.45155 1.25533 4.18984 1.13573C3.9908 1.04477 3.80497 1.01879 3.67163 1.00858C3.55839 0.999915 3.43112 0.999965 3.32688 1.00001L2 1.00001C1.44772 1.00001 1 1.44773 1 2.00001C1 2.5523 1.44772 3.00001 2 3.00001Z" fill="#801ED7"/>
<path d="M7 21C7 19.8954 7.89543 19 9 19C10.1046 19 11 19.8954 11 21C11 22.1046 10.1046 23 9 23C7.89543 23 7 22.1046 7 21Z" fill="#801ED7"/>
<path d="M15 21C15 19.8954 15.8954 19 17 19C18.1046 19 19 19.8954 19 21C19 22.1046 18.1046 23 17 23C15.8954 23 15 22.1046 15 21Z" fill="#801ED7"/>
</svg>
